X:1
T:Title
%%score { ( 1 3 4 ) | ( 2 5 6 ) }
L:1/8
Q:1/4=106
M:4/4
K:Ab
V:1 treble nm="Grand Piano"
V:3 treble 
V:4 treble 
V:2 bass 
V:5 bass 
V:6 bass 
V:1
 [CE]2 [CF]2 [CG]2 [CA]2 | [Ec]>[=D_c] [E=c]>[Fd] [Ec]2 [CA]2 | [CE]2 [CF]2 [CA]2 [CF]2 | %3
w: Mrs.~C.~H.~Morris * * *|||
 [DG]2 [DGe]2 [DGe]4 | [B,DE]2 [B,DF]2 [DEG]2 [DEA]2 | [DEB]>[CE=A] [DB]>[Ec] [DEB]2 [DE]2 | %6
w: |||
 [Gdf]2 [Gde]2 [EGd]2 [EGB]2 | z4 z c3 | F2 G2 A2 F2 | c>_c =c>d [=Ec]2 G2 | F2 G2 A2 F2 | %11
w: |||||
 [A,FB]2 [F_c]2 [=E=c]4 | [EGde]3 [de] [EGe]2 [FGd]2 | d2 [Ec]2 c2 [EA]2 | [FAB]3 c [Bd]f[ce][Bd] | %15
w: ||||
 [Ac]2 [DEB]2 [CA]4 | [Ec]2 (3[EAc]cc [CE]2 F/G/A/B/ | [Ec]2 (3[EAc]cc [CE]2 F/G/A/B/ | %18
w: |||
 cccc f2 e2 | [DEG]2 (3[DEG-][DEGA][DEG] (3E z F (3GAB | d2 (3[EGd]dd (3z FG (3ABc | %21
w: |||
 d2 (3[EGd]dd (3z GA (3Bcd | [Gf]2 [Ge]2 [Gd]2 [EGB]2 | [EA]2 [DGe]2 [CAe]2 z2 | %24
w: |||
 [A,CE]2 [CF]2 [CG]2 [CA]2 | [Ec]>[=D_c] [E=c]>[D_c] [E=c]2 z2 | [A,CE]2 [CF]2 [CG]2 [CA]2 | %27
w: |||
 [Ed]>[Ec] [Ed]>[Ec] [Ed]>E (3GFE | [_Ge]2 (3[GAce][Ace][Ace] [A,GA]2 z2 | [Fd]2 (3[FAd]dd F2 G>F | %30
w: |||
 E>E A>c [Ge]>[Gd] F>G | B4 z4 |] %32
w: ||
V:2
 [A,,A,]2 [E,,E,]2 [A,,A,]2 [E,,E,]2 | [A,,A,]2 [E,,E,]2 [A,,A,]2 [E,,E,]2 | %2
 [A,,A,]2 [E,,E,]2 [A,,A,]2 [E,,E,]2 | [B,,B,]2 [E,,E,]2 [B,,B,]2 [E,,E,]2 | %4
 [G,,G,]2 [E,,E,]2 [B,,B,]2 [E,,E,]2 | [G,,G,]2 [E,,E,]2 [G,,G,]2 [E,,E,]2 | %6
 [B,,B,]2 [E,,E,]2 [B,,B,]2 [D,D]2 | [C,C]2 [B,,B,]2 [A,,A,]CB,A, | F,2 G,2 A,2 F,2 | %9
 [C,G,]2 [G,,G,]2 [C,G,]2 G,2 | F,2 G,2 A,2 F,2 | z2 F,2 [C,G,]4 | %12
 [B,,B,]2 z [EG] [B,,B,]2 [E,,E,]2 | [A,F]2 [A,,A,]2 [A,E]2 [C,C]2 | %14
 [D,D]2 z [F=A] z[K:treble] d[K:bass]C,D, | [E,E]2 [E,,E,]2 [A,,E,]4 | %16
 [A,,A,]2 (3z[K:treble] [EA][EA][K:bass] [A,,A,]2 [A,,E,]2 | %17
 [A,,A,]2 (3z[K:treble] [EA][EA][K:bass] [A,,A,]2 [A,,E,]2 | %18
 [A,EA][A,EA][A,EA][A,EA] [A,DA]2 [A,CA]2 | B,4 B,,2 z2 | %20
 [G,B,E]2 (3z[K:treble] [EG][EG][K:bass] [G,B,]2 E,2 | %21
 [G,B,E]2 (3z[K:treble] [EG][EG][K:bass] [G,B,]2 E,2 | [E,D]2 [E,D]2 [E,B,]2 D,2 | %23
 C,2 B,,2 (3z[K:treble] cB (3AGF | A,,2 [A,,E,]2 [A,,A,]2 [A,,E,]2 | %25
 [A,,A,]>[A,,A,] [A,,E,]>[A,,E,] [A,,A,]>[K:treble]G (3BAG | A,,2 [A,,E,]2 [A,,A,]2 [A,,E,]2 | %27
 [B,,G,]>[B,,G,] [B,,E,]>[B,,E,] [B,,G,]2 E,2 | %28
 [C,A,]2 (3z[K:treble] _GG[K:bass] C,2[K:treble] (3ABc | %29
 [D,A,]2 (3z[K:treble] [FA][FA][K:bass] [D,A,D]2 [=D,A,_C]>[D,A,C] | %30
 [E,A,C]>[E,A,C] [E,A,C]>[E,A,E] [E,B,]>[E,B,] [E,G,D]>[E,B,D] | [E,D]4 z4 |] %32
V:3
 x8 | x8 | x8 | x8 | x8 | x8 | x8 | [EA]2 [EGde]2 .c2 BA | x8 | =E2 E2 z4 | x8 | x8 | x8 | x8 | %14
 z4 F2 F2 | x8 | x8 | x8 | x8 | z4 [B,DG]2 z2 | z4 E2 z2 | z4 E2 z2 | x8 | x8 | x8 | x8 | x8 | x8 | %28
 x8 | x8 | x8 | z2 F,2 [A,CA]2 z2 |] %32
V:4
 x8 | x8 | x8 | x8 | x8 | x8 | x8 | z4 [EAe]4 | x8 | x8 | x8 | x8 | x8 | x8 | x8 | x8 | x8 | x8 | %18
 x8 | x8 | x8 | x8 | x8 | x8 | x8 | x8 | x8 | x8 | x8 | x8 | x8 | x8 |] %32
V:5
 x8 | x8 | x8 | x8 | x8 | x8 | x8 | x8 | x8 | x8 | x8 | D,4 z4 | z2 [E,,E,]2 z4 | x8 | %14
 z2 [C,C]2 [B,,B,]2[K:treble][K:bass] z2 | x8 | z2 E,2[K:treble][K:bass] z4 | %17
 z2 E,2[K:treble][K:bass] z4 | x8 | B,,2 [E,,E,]2 (3:2:2z E2 [E,,E,]2 | %20
 z2 G,2[K:treble][K:bass] z4 | z2 G,2[K:treble][K:bass] z4 | x8 | z4 A,,2[K:treble] z2 | x8 | %25
 x11/2[K:treble] x5/2 | x8 | x8 | z2 A,2[K:treble][K:bass] z4[K:treble] | %29
 z2 A,2[K:treble][K:bass] z4 | x8 | G,3- G,/G,/ A,,2 z2 |] %32
V:6
 x8 | x8 | x8 | x8 | x8 | x8 | x8 | x8 | x8 | x8 | x8 | x8 | x8 | x8 | x5[K:treble] x[K:bass] x2 | %15
 x8 | z2 A,,2[K:treble][K:bass] z4 | z2 A,,2[K:treble][K:bass] z4 | x8 | x8 | %20
 z2 E,2[K:treble][K:bass] z4 | z2 E,2[K:treble][K:bass] z4 | x8 | x14/3[K:treble] x10/3 | x8 | %25
 x11/2[K:treble] x5/2 | x8 | x8 | z2 B,,2[K:treble][K:bass] z4[K:treble] | %29
 z2 D,2[K:treble][K:bass] z4 | x8 | x8 |] %32

